SVG_Azure_Grouped/AI/Power BI.svg

<?xml version="1.0" encoding="UTF-8" standalone="no"?>
<!-- Generated by Microsoft Visio, SVG Export Power BI.svg Page-1 -->

<svg
   xmlns:dc="http://purl.org/dc/elements/1.1/"
   xmlns:cc="http://creativecommons.org/ns#"
   xmlns:rdf="http://www.w3.org/1999/02/22-rdf-syntax-ns#"
   xmlns:svg="http://www.w3.org/2000/svg"
   xmlns="http://www.w3.org/2000/svg"
   xmlns:sodipodi="http://sodipodi.sourceforge.net/DTD/sodipodi-0.dtd"
   xmlns:inkscape="http://www.inkscape.org/namespaces/inkscape"
   width="0.78736073in"
   height="0.59066796in"
   viewBox="0 0 56.689987 42.528135"
   xml:space="preserve"
   class="st4"
   version="1.1"
   id="svg26"
   sodipodi:docname="Power BI.svg"
   style="font-size:12px;overflow:visible;color-interpolation-filters:sRGB;fill:none;fill-rule:evenodd;stroke-linecap:square;stroke-miterlimit:3"
   inkscape:version="0.92.5 (2060ec1f9f, 2020-04-08)"><metadata
   id="metadata32"><rdf:RDF><cc:Work
       rdf:about=""><dc:format>image/svg+xml</dc:format><dc:type
         rdf:resource="http://purl.org/dc/dcmitype/StillImage" /></cc:Work></rdf:RDF></metadata><defs
   id="defs30" /><sodipodi:namedview
   pagecolor="#ffffff"
   bordercolor="#666666"
   borderopacity="1"
   objecttolerance="10"
   gridtolerance="10"
   guidetolerance="10"
   inkscape:pageopacity="0"
   inkscape:pageshadow="2"
   inkscape:window-width="640"
   inkscape:window-height="480"
   id="namedview28"
   showgrid="false"
   inkscape:zoom="2.0639879"
   inkscape:cx="37.795293"
   inkscape:cy="11.821479"
   inkscape:window-x="0"
   inkscape:window-y="0"
   inkscape:window-maximized="0"
   inkscape:current-layer="svg26" />
	<style
   type="text/css"
   id="style2">
	<![CDATA[
		.st1 {fill:#f2c811;stroke:none;stroke-linecap:butt;stroke-width:9.22098}
		.st2 {fill:#f2c811}
		.st3 {stroke:none;stroke-linecap:butt;stroke-width:9.22098}
		.st4 {fill:none;fill-rule:evenodd;font-size:12px;overflow:visible;stroke-linecap:square;stroke-miterlimit:3}
	]]>
	</style>

	<g
   id="g24"
   transform="translate(-9.2209763,-9.21618)">
		<title
   id="title4">Page-1</title>
		<g
   id="group18331-1"
   transform="translate(9.22098,-34.0157)">
			<title
   id="title6">Power BI.18331</title>
			<g
   id="group18332-2">
				<title
   id="title8">Layer_1-2</title>
				<g
   id="shape18333-3"
   transform="translate(0,-5.66812)">
					<title
   id="title10">path6</title>
					<path
   d="M 48.72,85.76 V 83.12 H 50 c 2.44,0 4.04,-1.97 4.04,-4.38 V 55.61 A 3.85335,3.81677 -180 0 0 50,51.54 H 6.69 a 3.85335,3.81677 -180 0 0 -4.03,4.07 v 23.13 c 0,2.41 1.59,4.38 4.03,4.38 h 1.28 v 2.64 H 6.69 C 2.99,85.76 0,82.4 0,78.74 V 55.61 A 6.76772,6.70347 0 0 1 6.69,48.9 H 50 a 6.76772,6.70347 0 0 1 6.69,6.71 v 23.13 c 0,3.66 -2.99,7.02 -6.69,7.02 z"
   class="st1"
   id="path12"
   inkscape:connector-curvature="0"
   style="fill:#f2c811;stroke:none;stroke-width:9.22097969;stroke-linecap:butt" />
				</g>
				<g
   id="shape18334-5"
   transform="translate(10.6299)">
					<title
   id="title15">path8</title>
					<path
   d="M 3.1,85.76 A 3.19783,3.16748 0 0 1 0,82.49 v -7.51 a 3.19783,3.16748 0 0 1 3.1,-3.26 3.19783,3.16748 0 0 1 3.1,3.25 v 7.52 a 3.19783,3.16748 0 0 1 -3.09,3.27 z m 9.74,-0.29 a 3.11811,3.08851 0 0 1 -3.1,-3.1 V 64.01 a 3.10039,3.07096 0 1 1 6.2,0 v 18.36 a 3.10925,3.07974 0 0 1 -3.09,3.11 z m 19.52,0.07 A 3.12697,3.09729 0 0 1 29.23,82.41 V 56.2 a 3.10039,3.07096 0 1 1 6.2,0 v 26.21 a 3.10925,3.07974 0 0 1 -3.07,3.13 z M 22.6,85.62 A 3.14469,3.11483 0 0 1 19.49,82.46 V 68.59 a 3.10039,3.07096 0 1 1 6.2,0 v 13.87 a 3.13583,3.10606 0 0 1 -3.09,3.15 z"
   class="st2"
   id="path17"
   inkscape:connector-curvature="0"
   style="fill:#f2c811" />
					<path
   d="M 3.1,85.76 A 3.19783,3.16748 0 0 1 0,82.49 v -7.51 a 3.19783,3.16748 0 0 1 3.1,-3.26 3.19783,3.16748 0 0 1 3.1,3.25 v 7.52 A 3.19783,3.16748 0 0 1 3.11,85.76 H 3.1 m 9.74,-0.29 a 3.11811,3.08851 0 0 1 -3.1,-3.1 V 64.01 a 3.10039,3.07096 0 1 1 6.2,0 v 18.36 a 3.10925,3.07974 0 0 1 -3.09,3.11 m 19.51,0.06 A 3.12697,3.09729 0 0 1 29.23,82.41 V 56.2 a 3.10039,3.07096 0 1 1 6.2,0 v 26.21 a 3.10925,3.07974 0 0 1 -3.07,3.13 M 22.6,85.62 A 3.14469,3.11483 0 0 1 19.49,82.46 V 68.59 a 3.10039,3.07096 0 1 1 6.2,0 v 13.87 a 3.13583,3.10606 0 0 1 -3.09,3.15"
   class="st3"
   id="path19"
   inkscape:connector-curvature="0"
   style="stroke:none;stroke-width:9.22097969;stroke-linecap:butt" />
				</g>
			</g>
		</g>
	</g>
</svg>

<?xml version="1.0" encoding="UTF-8" standalone="no"?>
<!DOCTYPE svg PUBLIC "-//W3C//DTD SVG 1.1//EN" "http://www.w3.org/Graphics/SVG/1.1/DTD/svg11.dtd">
<!-- Generated by Microsoft Visio, SVG Export Power BI.svg Page-1 -->
<svg xmlns="http://www.w3.org/2000/svg" xmlns:xlink="http://www.w3.org/1999/xlink" xmlns:ev="http://www.w3.org/2001/xml-events"
		width="1.04354in" height="1.19106in" viewBox="0 0 75.1349 85.7564" xml:space="preserve" color-interpolation-filters="sRGB"
		class="st4">
	<style type="text/css">
	<![CDATA[
		.st1 {fill:#f2c811;stroke:none;stroke-linecap:butt;stroke-width:9.22098}
		.st2 {fill:#f2c811}
		.st3 {stroke:none;stroke-linecap:butt;stroke-width:9.22098}
		.st4 {fill:none;fill-rule:evenodd;font-size:12px;overflow:visible;stroke-linecap:square;stroke-miterlimit:3}
	]]>
	</style>

	<g>
		<title>Page-1</title>
		<g id="group17901-1" transform="translate(9.22098,-34.0157)">
			<title>Power BI.17901</title>
			<g id="group17902-2">
				<title>Layer_1-2</title>
				<g id="shape17903-3" transform="translate(0,-5.66812)">
					<title>path6</title>
					<path d="M48.72 85.76 L48.72 83.12 L50 83.12 C52.44 83.12 54.04 81.15 54.04 78.74 L54.04 55.61 A3.85335 3.81677
								 -180 0 0 50 51.54 L6.69 51.54 A3.85335 3.81677 -180 0 0 2.66 55.61 L2.66 78.74 C2.66 81.15 4.25
								 83.12 6.69 83.12 L7.97 83.12 L7.97 85.76 L6.69 85.76 C2.99 85.76 0 82.4 0 78.74 L0 55.61 A6.76772
								 6.70347 0 0 1 6.69 48.9 L50 48.9 A6.76772 6.70347 0 0 1 56.69 55.61 L56.69 78.74 C56.69 82.4 53.7
								 85.76 50 85.76 L48.72 85.76 Z" class="st1"/>
				</g>
				<g id="shape17904-5" transform="translate(10.6299,2.27374E-13)">
					<title>path8</title>
					<path d="M3.1 85.76 A3.19783 3.16748 0 0 1 0 82.49 L0 74.98 A3.19783 3.16748 0 0 1 3.1 71.72 A3.19783 3.16748
								 0 0 1 6.2 74.97 L6.2 82.49 A3.19783 3.16748 0 0 1 3.11 85.76 L3.1 85.76 ZM12.84 85.47 A3.11811 3.08851
								 0 0 1 9.74 82.37 L9.74 64.01 A3.10039 3.07096 0 1 1 15.94 64.01 L15.94 82.37 A3.10925 3.07974 0
								 0 1 12.85 85.48 L12.84 85.47 ZM32.36 85.54 A3.12697 3.09729 0 0 1 29.23 82.41 L29.23 56.2 A3.10039
								 3.07096 0 1 1 35.43 56.2 L35.43 82.41 A3.10925 3.07974 0 0 1 32.36 85.54 ZM22.6 85.62 A3.14469 3.11483
								 0 0 1 19.49 82.46 L19.49 68.59 A3.10039 3.07096 0 1 1 25.69 68.59 L25.69 82.46 A3.13583 3.10606
								 0 0 1 22.6 85.61 L22.6 85.62 Z" class="st2"/>
					<path d="M3.1 85.76 A3.19783 3.16748 0 0 1 0 82.49 L0 74.98 A3.19783 3.16748 0 0 1 3.1 71.72 A3.19783 3.16748
								 0 0 1 6.2 74.97 L6.2 82.49 A3.19783 3.16748 0 0 1 3.11 85.76 L3.1 85.76M12.84 85.47 A3.11811 3.08851
								 0 0 1 9.74 82.37 L9.74 64.01 A3.10039 3.07096 0 1 1 15.94 64.01 L15.94 82.37 A3.10925 3.07974 0
								 0 1 12.85 85.48M32.36 85.54 A3.12697 3.09729 0 0 1 29.23 82.41 L29.23 56.2 A3.10039 3.07096 0 1
								 1 35.43 56.2 L35.43 82.41 A3.10925 3.07974 0 0 1 32.36 85.54M22.6 85.62 A3.14469 3.11483 0 0 1 19.49
								 82.46 L19.49 68.59 A3.10039 3.07096 0 1 1 25.69 68.59 L25.69 82.46 A3.13583 3.10606 0 0 1 22.6 85.61"
							class="st3"/>
				</g>
			</g>
		</g>
	</g>
</svg>
